priv/static/svgs/icons_new/sport-biathlon.svg

<svg width="32" height="32" viewBox="0 0 32 32" fill="none" xmlns="http://www.w3.org/2000/svg">
<path d="M6 6.5C5.72386 6.5 5.5 6.72386 5.5 7C5.5 7.27614 5.72386 7.5 6 7.5V6.5ZM19.3333 21V20.5C19.0572 20.5 18.8333 20.7239 18.8333 21H19.3333ZM21.8333 21H22.3333C22.3333 20.7239 22.1095 20.5 21.8333 20.5V21ZM15.5 14C15.5 14.8284 14.8284 15.5 14 15.5V16.5C15.3807 16.5 16.5 15.3807 16.5 14H15.5ZM14 15.5C13.1716 15.5 12.5 14.8284 12.5 14H11.5C11.5 15.3807 12.6193 16.5 14 16.5V15.5ZM12.5 14C12.5 13.1716 13.1716 12.5 14 12.5V11.5C12.6193 11.5 11.5 12.6193 11.5 14H12.5ZM14 12.5C14.8284 12.5 15.5 13.1716 15.5 14H16.5C16.5 12.6193 15.3807 11.5 14 11.5V12.5ZM9.5 14C9.5 14.8284 8.82843 15.5 8 15.5V16.5C9.38071 16.5 10.5 15.3807 10.5 14H9.5ZM8 15.5C7.17157 15.5 6.5 14.8284 6.5 14H5.5C5.5 15.3807 6.61929 16.5 8 16.5V15.5ZM6.5 14C6.5 13.1716 7.17157 12.5 8 12.5V11.5C6.61929 11.5 5.5 12.6193 5.5 14H6.5ZM8 12.5C8.82843 12.5 9.5 13.1716 9.5 14H10.5C10.5 12.6193 9.38071 11.5 8 11.5V12.5ZM21.5 14C21.5 14.8284 20.8284 15.5 20 15.5V16.5C21.3807 16.5 22.5 15.3807 22.5 14H21.5ZM20 15.5C19.1716 15.5 18.5 14.8284 18.5 14H17.5C17.5 15.3807 18.6193 16.5 20 16.5V15.5ZM18.5 14C18.5 13.1716 19.1716 12.5 20 12.5V11.5C18.6193 11.5 17.5 12.6193 17.5 14H18.5ZM20 12.5C20.8284 12.5 21.5 13.1716 21.5 14H22.5C22.5 12.6193 21.3807 11.5 20 11.5V12.5ZM25.5 9V19H26.5V9H25.5ZM6 7.5H24V6.5H6V7.5ZM24 20.5H6V21.5H24V20.5ZM25.5 19C25.5 19.8284 24.8284 20.5 24 20.5V21.5C25.3807 21.5 26.5 20.3807 26.5 19H25.5ZM26.5 9C26.5 7.61929 25.3807 6.5 24 6.5V7.5C24.8284 7.5 25.5 8.17157 25.5 9H26.5ZM19.3333 21.5H21.8333V20.5H19.3333V21.5ZM21.3333 21V26.8333H22.3333V21H21.3333ZM21 27.1667H20.1666V28.1667H21V27.1667ZM19.8333 26.8333V21H18.8333V26.8333H19.8333ZM20.1666 27.1667C19.9826 27.1667 19.8333 27.0174 19.8333 26.8333H18.8333C18.8333 27.5697 19.4303 28.1667 20.1666 28.1667V27.1667ZM21.3333 26.8333C21.3333 27.0174 21.1841 27.1667 21 27.1667V28.1667C21.7364 28.1667 22.3333 27.5697 22.3333 26.8333H21.3333Z" fill="black"/>
</svg>

<svg width="32" height="32" viewBox="0 0 32 32" fill="none" xmlns="http://www.w3.org/2000/svg">
  <symbol id="item" viewBox="0 0 32 32"  fill="none">
    <path d="M6 6.5a.5.5 0 0 0 0 1v-1ZM19.333 21v-.5a.5.5 0 0 0-.5.5h.5Zm2.5 0h.5a.5.5 0 0 0-.5-.5v.5ZM15.5 14a1.5 1.5 0 0 1-1.5 1.5v1a2.5 2.5 0 0 0 2.5-2.5h-1ZM14 15.5a1.5 1.5 0 0 1-1.5-1.5h-1a2.5 2.5 0 0 0 2.5 2.5v-1ZM12.5 14a1.5 1.5 0 0 1 1.5-1.5v-1a2.5 2.5 0 0 0-2.5 2.5h1Zm1.5-1.5a1.5 1.5 0 0 1 1.5 1.5h1a2.5 2.5 0 0 0-2.5-2.5v1ZM9.5 14A1.5 1.5 0 0 1 8 15.5v1a2.5 2.5 0 0 0 2.5-2.5h-1ZM8 15.5A1.5 1.5 0 0 1 6.5 14h-1A2.5 2.5 0 0 0 8 16.5v-1ZM6.5 14A1.5 1.5 0 0 1 8 12.5v-1A2.5 2.5 0 0 0 5.5 14h1ZM8 12.5A1.5 1.5 0 0 1 9.5 14h1A2.5 2.5 0 0 0 8 11.5v1ZM21.5 14a1.5 1.5 0 0 1-1.5 1.5v1a2.5 2.5 0 0 0 2.5-2.5h-1ZM20 15.5a1.5 1.5 0 0 1-1.5-1.5h-1a2.5 2.5 0 0 0 2.5 2.5v-1ZM18.5 14a1.5 1.5 0 0 1 1.5-1.5v-1a2.5 2.5 0 0 0-2.5 2.5h1Zm1.5-1.5a1.5 1.5 0 0 1 1.5 1.5h1a2.5 2.5 0 0 0-2.5-2.5v1ZM25.5 9v10h1V9h-1ZM6 7.5h18v-1H6v1Zm18 13H6v1h18v-1Zm1.5-1.5a1.5 1.5 0 0 1-1.5 1.5v1a2.5 2.5 0 0 0 2.5-2.5h-1Zm1-10A2.5 2.5 0 0 0 24 6.5v1A1.5 1.5 0 0 1 25.5 9h1Zm-7.167 12.5h2.5v-1h-2.5v1Zm2-.5v5.833h1V21h-1ZM21 27.167h-.833v1H21v-1Zm-1.167-.334V21h-1v5.833h1Zm.334.334a.333.333 0 0 1-.334-.334h-1c0 .737.597 1.334 1.334 1.334v-1Zm1.166-.334c0 .184-.149.334-.333.334v1c.736 0 1.333-.597 1.333-1.334h-1Z" fill="currentColor"/>
  </symbol>
</svg>
